symbols/web/mark_email_unread/materialsymbolssharp/mark_email_unread_wght700gradN25_48px.svg

<svg xmlns="http://www.w3.org/2000/svg" height="48" width="48"><path d="M3 41V6.9h25.25q-.45 1.2-.525 2.325-.075 1.125.125 2.325h-20L24 22.35l7.1-4.75q.65.65 1.475 1.125.825.475 1.725.725L24 26.4 7.6 15.3v21.15h32.85V19.9q1.25-.25 2.45-.875 1.2-.625 2.15-1.575V41Zm4.6-29.45v24.9-24.9Zm30.4 4.7q-2.65 0-4.45-1.825-1.8-1.825-1.8-4.425 0-2.65 1.825-4.475Q35.4 3.7 38 3.7q2.65 0 4.475 1.85Q44.3 7.4 44.3 10q0 2.65-1.85 4.45-1.85 1.8-4.45 1.8Z"/></svg>

<svg xmlns="http://www.w3.org/2000/svg" height="48" width="48"><path d="M3 41V6.9H28.25Q27.8 8.1 27.725 9.225Q27.65 10.35 27.85 11.55H7.85L24 22.35L31.1 17.6Q31.75 18.25 32.575 18.725Q33.4 19.2 34.3 19.45L24 26.4L7.6 15.3V36.45H40.45V19.9Q41.7 19.65 42.9 19.025Q44.1 18.4 45.05 17.45V41ZM7.6 11.55V36.45V11.55Q7.6 11.55 7.6 11.55Q7.6 11.55 7.6 11.55Q7.6 11.55 7.6 11.55Q7.6 11.55 7.6 11.55ZM38 16.25Q35.35 16.25 33.55 14.425Q31.75 12.6 31.75 10Q31.75 7.35 33.575 5.525Q35.4 3.7 38 3.7Q40.65 3.7 42.475 5.55Q44.3 7.4 44.3 10Q44.3 12.65 42.45 14.45Q40.6 16.25 38 16.25Z"/></svg>
